X:1
T:Verso de Magnificat del septimo tono
T:Verso de Magnificat del septimo tono
T:Antonio de Cabezon (1510-1566)
C:Antonio de Cabezon (1510-1566)
%%score 1 { ( 2 5 ) | ( 3 4 ) }
L:1/8
Q:1/2=72
M:2/2
K:F
V:1 treble nm="Stimme"
V:2 treble nm="Orgel"
V:5 treble 
V:3 bass 
V:4 bass 
V:1
 G8 | B8 | A8 | G8 | A8 | G8 | A8 | G8 | F8 | E8 | D8 |[M:3/2][Q:1/2=56] z8 | z12 | z12 | z12 | %15
w: Magni-|fi-|cat|a-|ni-|ma|me-|a|do-|mi-|num|||||
 z12 | z12 | z12 | z12 | z12 | z12 | z12 | z12 | z12 | %24
w: |||||||||
"^ritardando per plugin di Jeetee e BSG" z12[Q:1/2=55]"^.9"[Q:1/2=55]"^.9"[Q:1/2=55]"^.8"[Q:1/2=55]"^.7"[Q:1/2=55]"^.5"[Q:1/2=55]"^.3"[Q:1/2=55]"^.1"[Q:1/2=54]"^.9"[Q:1/2=54]"^.6" | %25
w: |
[Q:1/2=54]"^.2" z12[Q:1/2=53]"^.8"[Q:1/2=53]"^.4"[Q:1/2=52]"^.9"[Q:1/2=52]"^.3"[Q:1/2=51]"^.7"[Q:1/2=51]"^.1"[Q:1/2=50]"^.3"[Q:1/2=49]"^.6"[Q:1/2=48]"^.7"[Q:1/2=47]"^.8"[Q:1/2=46]"^.9" | %26
w: |
[Q:1/2=45]"^.8" z12[Q:1/2=44]"^.7"[Q:1/2=43]"^.6"[Q:1/2=42]"^.4"[Q:1/2=41]"^.1"[Q:1/2=39]"^.7"[Q:1/2=38]"^.2"[Q:1/2=36]"^.7"[Q:1/2=35]"^.1"[Q:1/2=33]"^.5"[Q:1/2=31]"^.7"[Q:1/2=29]"^.9" || %27
w: |
[M:4/4][Q:1/4=56] z8 | z8 | z8 | %30
w: |||
 z8[Q:1/4=55]"^.9"[Q:1/4=55]"^.3"[Q:1/4=53]"^.9"[Q:1/4=51]"^.8"[Q:1/4=48]"^.6"[Q:1/4=44]"^.3" | %31
w: |
[Q:1/4=32] z8 |] %32
w: |
V:2
 z8 | z8 | z8 | z8 | z8 | z8 | z8 | z8 | z8 | z8 | z8 |[M:3/2] x8 | x12 | x12 | x12 | x12 | C12 | %17
 F4 E4 F4 | G8 G4 | B12 | A8 G4 | A4 G8 | A8 G4 | F8 E4 | D2 dc BAGF EDCB, | A,G,F,G, A,B,CD EFGE | %26
 FEDE FGA=B ^cdBc ||[M:4/4] d8 | d2 c2 B2 A2 | G4 ^F4 | G8 | !fermata!^F8 |] %32
V:3
 z8 | z8 | z8 | z8 | z8 | z8 | z8 | z8 | z8 | z8 | z8 |[M:3/2] z4 C,4 | F,4 E,4 F,4 | G,8 G,4 | %14
 B,12 | A,8 G,4 | A,2 G,2 E,2 F,2 C,2 E,2 | D,4 z8 | z2 C2 B,4 C4 | G,4 D4 G,4 | D4 C4 B,4 | %21
 A,4 C2 A,2 B,2 C2 | F,2 G,2 A,2 B,2 C2 C,2 | D,2 E,2 F,2 G,2 A,4 | D,4 G,4 C4 | %25
[I:staff -1] A,8[I:staff +1] G,4 | F,8 E,4 ||[M:4/4] A,2 G,2 F,2 E,2 | D,4 D2 C2 | %29
[I:staff -1] B,4 A,4 | B,CDC B,A, G,2 | A,8 |] %32
V:4
 x8 | x8 | x8 | x8 | x8 | x8 | x8 | x8 | x8 | x8 | x8 |[M:3/2] z4 A,,4 | D,,2 D,4 ^C,2 D,4 | %13
 =C,2 D,2 _E,2 D,2 C,2 B,,A,, | G,,2 A,,2 B,,2 C,2 D,2 =E,2 | F,2 E,2 D,2 C,2 B,,4 | A,,8 z4 | %17
 z4 z8 | x12 | x12 | x12 | x12 | x12 | z8 A,,4 | B,,4 G,,4 [C,G,]4 | F,8 E,4 | D,8 A,,4 || %27
[M:4/4] D,4 D,2 C,2 | B,,2 A,,2 G,,4 | G,,4 D,,4 | G,,8 | D,,8 |] %32
V:5
 x8 | x8 | x8 | x8 | x8 | x8 | x8 | x8 | x8 | x8 | x8 |[M:3/2] x8 | x12 | x12 | x12 | x12 | %16
 z8 A,4- | A,2 D4 =C2 D4 | _E4 D4 E4 | D2 G4 ^F2 G4 | =F4 E4 D4 | E4 E8 | F8 E4 | D8 ^C4 | D4 x8 | %25
 C12 |[I:staff +1] A,8[I:staff -1] E4 ||[M:4/4] D8- | D8 |[I:staff +1] D,8- | D,8- | D,8 |] %32

